X:207
T: ES IST NICHTS LUSTGERS AUF DER WELT
N: E1346
O: Europa, Mitteleuropa, Deutschland, Thueringen, Franken
R: Staende -, Soldaten -, Kriegs - Lied
M: 6/8
L: 1/8
K: G
D | G2GB2B | d2dB2
G | A2Ad2d | B3z2
D | G2GB2B | d2dB2
G | A2Ad2d | B3z2
A | A2BA2A | B2dB2
G | A2GA2d | B3z2
D | G2GB2B | d2dB2
G | A2Ad2F | G3z2

